X:970
T:Bunch of Keys, The
R:reel
Z:id:hn-reel-970
M:C|
L:1/8
K:Gmix
DGG^F ~G3A | BGdG eGdG | D=FFE ~F3G | AFcF dFcF | 
DGG^F ~G3A | BG~G2 Bcde | ^fage fdcA |1 dcA^F G2GF :|2 GBA^F G2Bc ||
|: dgg^f ~g3a | bg~g2 bga^f | ~d3e ^fefg | a^f~f2 afgf |
dg^fa ~g3a | bg~g2 g^fde | ^fage fdcA |1 dcA^F G2Bc :|2 BdA^F G2GA ||
|: BG~G2 BGdG | BG~G2 (3Bcd gd | A=F~F2 AFcF | AF~F2 ABcA |
BG~G2 BGdG | BGGA Bcde | ^fage fdcA |1 BdA^F DGGA :|2 BdA^F DGGF ||

